src/helpers/heroicons/solid/phone-arrow-up-right.svg

<svg width="24" height="24" viewBox="0 0 24 24" fill="none" xmlns="http://www.w3.org/2000/svg">
<path fill-rule="evenodd" clip-rule="evenodd" d="M15 3.75C15 3.33579 15.3358 3 15.75 3H20.25C20.6642 3 21 3.33579 21 3.75V8.25C21 8.66421 20.6642 9 20.25 9C19.8358 9 19.5 8.66421 19.5 8.25V5.56066L14.7803 10.2803C14.4874 10.5732 14.0126 10.5732 13.7197 10.2803C13.4268 9.98744 13.4268 9.51256 13.7197 9.21967L18.4393 4.5H15.75C15.3358 4.5 15 4.16421 15 3.75Z" />
<path fill-rule="evenodd" clip-rule="evenodd" d="M1.5 4.5C1.5 2.84315 2.84315 1.5 4.5 1.5H5.87163C6.732 1.5 7.48197 2.08556 7.69064 2.92025L8.79644 7.34343C8.97941 8.0753 8.70594 8.84555 8.10242 9.29818L6.8088 10.2684C6.67447 10.3691 6.64527 10.5167 6.683 10.6197C7.81851 13.7195 10.2805 16.1815 13.3803 17.317C13.4833 17.3547 13.6309 17.3255 13.7316 17.1912L14.7018 15.8976C15.1545 15.2941 15.9247 15.0206 16.6566 15.2036L21.0798 16.3094C21.9144 16.518 22.5 17.268 22.5 18.1284V19.5C22.5 21.1569 21.1569 22.5 19.5 22.5H17.25C8.55151 22.5 1.5 15.4485 1.5 6.75V4.5Z" />
</svg>

<svg xmlns="http://www.w3.org/2000/svg" viewBox="0 0 24 24" fill="currentColor" aria-hidden="true" data-slot="icon">
  <path fill-rule="evenodd" d="M15 3.75a.75.75 0 0 1 .75-.75h4.5a.75.75 0 0 1 .75.75v4.5a.75.75 0 0 1-1.5 0V5.56l-4.72 4.72a.75.75 0 1 1-1.06-1.06l4.72-4.72h-2.69a.75.75 0 0 1-.75-.75Z" clip-rule="evenodd"/>
  <path fill-rule="evenodd" d="M1.5 4.5a3 3 0 0 1 3-3h1.372c.86 0 1.61.586 1.819 1.42l1.105 4.423a1.875 1.875 0 0 1-.694 1.955l-1.293.97c-.135.101-.164.249-.126.352a11.285 11.285 0 0 0 6.697 6.697c.103.038.25.009.352-.126l.97-1.293a1.875 1.875 0 0 1 1.955-.694l4.423 1.105c.834.209 1.42.959 1.42 1.82V19.5a3 3 0 0 1-3 3h-2.25C8.552 22.5 1.5 15.448 1.5 6.75V4.5Z" clip-rule="evenodd"/>
</svg>
